X:1
T:James Gibb editions
T:Here, O my Lord, I see Thee face to face - Barnby
%%score [ ( 1 2 ) ( 3 4 ) ]
L:1/8
Q:1/4=140
M:2/2
K:D
V:1 treble nm="Midi_74"
V:2 treble 
V:3 bass nm="Midi_74"
V:4 bass 
V:1
"^Horatio Bonar\n(1808-89)""^Here, O my Lord, I see Thee face to face""^10 10. 10 10""^Joseph Barnby\n(1838-96)" F4 F2 G2 | %1
 A4 A4 | B2 d2 d2 c2 | d8 || d4 c2 B2 | A4 A4 | B2 A2 ^G2 G2 | F8 ||[M:2/2] A4 G2 F2 | B4"^1" B4 | %10
 B2 B2 e2 !courtesy!=d2 | c8 || d4 c2 F2 | F2 B2 B2 AG | F4 E4 | D8 || G8 | F8 |] %18
V:2
 D4 D2 D2 | D4 D4 | D2 D2 G2 E2 | F8 || F4 E2 D2 | C4 D4 | D2 C2 B,2 B,2 | A,8 || %8
[M:2/2] =C4 C2 C2 | B,4 ^D4 | E2 ^D2 E2 G2 | (G4 F2 E2) || D4 E2 E2 | ^D2 D2 E2 FE | D4 C4 | D8 || %16
 D8 | D8 |] %18
V:3
 A,4 A,2 A,2 | A,4 F,4 | G,2 A,2 B,2 A,2 | A,8 || A,4 ^G,2 G,2 | A,4 F,4 | F,2 F,2 F,2 ^E,2 | %7
 F,8 || %8
[M:2/2]"^1 Here, O my Lord, I see Thee face to face;\nHere would we touch and handle things unseen;\nHere grasp with firmer hand eternal grace\nAnd all my weariness upon Thee lean.\n\n2 Here would I feed upon the bread of God,\nHere drink with Thee the royal wine of heaven;\nHere would I lay aside each earthly load,\nHere taste afresh the calm of sin forgiven.\n\n3 This is the hour of banquet and of song;\nThis is the heavenly table spread for me;\nHere let me feast, and feasting, still prolong\nThe brief, bright hour of fellowship with Thee.\n\n4 Too soon we rise, the symbols disappear;\nThe feast, though not the love, is past and done;\nGone are the bread and wine, but Thou art here,\nNearer than ever, still my Shield and Sun.\n\n5 Feast after feast thus comes, and passes by;\nYet passing, points to the glad feast above;\nGiving sweet foretaste of the festal joy,\nThe Lamb's great bridal feast of bliss and love.\n" F,4 G,2 A,2 | %9
 G,4 B,4 | B,2 A,2 B,2 B,2 | A,8 || A,4 ^A,2 A,2 | B,2 A,2 G,2 B,2 | A,4 G,4 | F,8 || B,8 | A,8 |] %18
V:4
 D,4 D,2 E,2 | F,4 D,4 | G,2 F,2 E,2 A,2 | D,8 || D,4 E,2 E,2 | F,4 D,4 | B,,2 B,,2 C,2 C,2 | %7
 F,8 ||[M:2/2] D,4 D,2 D,2 | G,4 A,4 | G,2 F,2 G,2 E,2 | (A,6 G,2) || F,4 F,2 F,2 | %13
 B,2 B,,2 E,2 G,,2 | A,,4 A,,4 | D,8 || G,,8 | D,8 |] %18

